X: 1
T: Bert Ferguson    [A]
C: Samuel Ian Rothmar Burns (1980)
R: jig
Z: 2016 John Chambers <jc:trillian.mit.edu>
S: handout at Roaring Jelly practice 2016-3-24
S: http://www.terrytraub.org/buz_tunes.abc
B: Songer, Portland Collection, 1997, p.28
M: 6/8
L: 1/8
K: A
A/B/ |\
"A"c>Bc "E7"E>AB | "A"c>Bc e2E | "D"F>AB "Bm"B>AB | "E"c>BB "E7"B2A/B/ |
"A"c>Bc "(E7)"E>AB | "A"c>Bc "A7"e2E | "D"F<AA "Bm"B>AF | "E7"E>AA "A"A2 :|
|: e |\
"F#m"f<af f>ec | "E"e>fg "A"a>ec | "F#m"f<af "C#m"f>ec | "Bm"f>BB "E7"B>de |
"F#m"f<af f>ec | "E"e>dc "A7/C#"c>BA | "D"F<AA "Bm"B>AF | "E7"E>AA "A"A2 :|
